!!!COM: Claude Goudimel
!!!OMD: Psalm 133: O combien est plaisant et
**kern	**kern	**kern	**kern
*part4	*part3	*part2	*part1
*staff4	*staff3	*staff2	*staff1
*I"bassus	*I"tenor	*I"contra	*I"superius
*clefF3	*clefC3	*clefC2	*clefG2
*k[b-]	*k[b-]	*k[b-]	*k[b-]
!!LO:TX:omd:t=
*M2/2	*M2/2	*M2/2	*M2/2
*met(c|)	*met(c|)	*met(c|)	*met(c|)
=1	=1	=1	=1
1F	1F	1A	1c
=2	=2	=2	=2
1F	1A	1c	1f
=3	=3	=3	=3
1C	1G	1c	1e
=4	=4	=4	=4
2F	2F	2c	2f
2A	2c	2A	2e
=5	=5	=5	=5
2G	2d	2Bn	2g
2F	2f	2c	2a
=6	=6	=6	=6
2A	2e	2c	2a
2A	2c	2e	2a
=7	=7	=7	=7
1G	1d	1g	1bn
=8	=8	=8	=8
1C	1c	1g	1cc
=9	=9	=9	=9
1r	1r	1r	1r
=10	=10	=10	=10
1F	1f	1a	1cc
=11	=11	=11	=11
2F	2f	2a	2cc
2C	2e	2g	2cc
=12	=12	=12	=12
1F	1f	1a	1cc
=13	=13	=13	=13
1F	1c	1f	1a
=14	=14	=14	=14
2D	2d	2f	2a
2BB-	2d	2f	2b-
=15	=15	=15	=15
2F	2c	2f	2a
2F	2A	2f	2a
=16	=16	=16	=16
1G	1B-	1d	1g
=17	=17	=17	=17
1D	1A	1d	1f#X
=18	=18	=18	=18
1r	1r	1r	1r
=19	=19	=19	=19
1C	1c	1e	1g
=20	=20	=20	=20
1D	1A	1d	1f
=21	=21	=21	=21
1BB-	1d	1f	1b-
=22	=22	=22	=22
2F	2c	2f	2a
2BB-	2B-	2d	[2g
=23	=23	=23	=23
1C	1A	1c	2g]
.	.	.	[2f
=24	=24	=24	=24
1C	1G	1c	2f]
.	.	.	2e
=25	=25	=25	=25
1F	1F	1c	1f
=26	=26	=26	=26
1r	1r	1r	1r
=27	=27	=27	=27
1F	1F	1A	1c
=28	=28	=28	=28
2D	2A	2d	2f
2G	2B-	2d	2g
=29	=29	=29	=29
1F	1c	1f	1a
=30	=30	=30	=30
1D	1d	1f	1a
=31	=31	=31	=31
2C	2e	2g	2cc
2F	2c	2f	2a
=32	=32	=32	=32
2D	2d	2f	2b-
2C	2e	2g	2cc
=33	=33	=33	=33
1F	1f	1a	1cc
=34	=34	=34	=34
1r	1r	1r	1r
=35	=35	=35	=35
1F	1f	1a	1cc
=36	=36	=36	=36
2A	2e	2a	2cc
2B-	2d	2f	2b-
=37	=37	=37	=37
1F	1c	1f	1a
=38	=38	=38	=38
1F	1A	1c	1f
=39	=39	=39	=39
2BB-	2d	2B-	2f
2BB-	2d	2f	2b-
=40	=40	=40	=40
2F	2c	2f	2a
2G	2Bn	2d	2g
=41	=41	=41	=41
1F	1c	1f	1a
=42	=42	=42	=42
1r	1r	1r	1r
=43	=43	=43	=43
1F	1F	1A	1c
=44	=44	=44	=44
1F	1c	1A	1a
=45	=45	=45	=45
1BB-	1d	1B-	1f
=46	=46	=46	=46
2C	2c	2G	2e
2E-X	2B-	2G	[2g
=47	=47	=47	=47
1F	1A	1c	2g]
.	.	.	[2f
=48	=48	=48	=48
1C	1G	1c	2f]
.	.	.	2e
=49	=49	=49	=49
1F;	1F;	1c;	1f;
==	==	==	==
*-	*-	*-	*-
!!!software: music21 v.9.7.1
!!!software: music21 v.9.1.0
!!!RDF**kern: > = above
!!!RDF**kern: < = below
